X:444
T: Der Fhnrich (160a), S. 348
N: T0332
O: Luxemburg
S: Singendes Volk, Esch-Alzette 1937, posth.]
N: Mertert, hhh Johann Peter Kayser, 9.12.1917;
N: (160b)- Rammeldingen, hhh J.P. Gloden, 26.12.1932
R: historische, Kriegs- und Soldatenlieder, Liebeslied]
M: 3/4
L: 1/8
K: G
G2 | G2D2B2 | B2G2de | d3cB2 | B2A2
G2 | G2D2B2 | B2G2de | d3cB2 | B2A2
ee | e2d2GG | B2A2
ee | e2d2GG | B2A2
GB | d2d2ee | d2d2
ed | d2d2e2 | d2z2
Bd | d2d2c2 | B2z2

@@@ Tune index: 8498
